X: 1
T: Lament for Sir Harry Lumsden, Bart., of Auchindoir
C: William Marshall
R: air
Z: 2015 John Chambers <jc:trillian.mit.edu>
B: Version from the Concord Slow Scottish Jam session binder 2.
M: 6/8
L: 1/16
Q: "Slow and Pathetic" 1/4=104
K: Gm
!mp!Bc |\
{Bc}d3cB2 (FD3F2) | ((B,B3)B2) B4de |\
f3ed2 (dc3B2) | ((Cc3)c2) (c4d2) |
e4 (f3g/a/) {ga}b3ag2 | (fB3d2) {d}Hf4!mp!e2 |\
{e}d3cB2 (FD3F2) | (GB3)B2 B4 :|
|: (DC) | .B,2.D2.F2 .B2.d2.f2 | {=E}~F3GF2 ({E}F4F2) |\
({F}B4F2) ({F}d4B2) | (A2c2d2) ({d}e4f2) |
"_cresc."{e}g3fe2 (d2e2f2) | "^rit."g2(a2b2) {g}Hf4!p!e2 |\
{e}d3cB2 (FD3F2) | (GB3)B2 B4 :|
